X:1
T:Pray, Fair One Be Kind
M:3/4
L:1/4
K:G
 D| G3/2 A/2 G| G2 G| A3/2 B/2 A| A2 A| B3/2 c/2 d| G3/2 F/2 E| F/2 D2- D/2-|\
 D2 D| G3/2 A/2 G| G2 G| A3/2 B/2 A| A2 A| B3/2 c/2 d| G3/2 F/2 E|\
 F/2 D2- D/2-| D2 D| G- A B| E2 E| A B c| F2 B| B- c d| G2 B| c3/2 d/2 e|\
 d2 c| B3/2 A/2 G| D G A| B G2| d2- c| B3/2 A/2 G| D d3/2 c/2| B G2-|\
 G2||
